!!!SOCIAL_FUNCTION:	songs of social dance
!!!PDT:	1936
!!!OTL: No_65_Song_of_Snake_Dance_(a).krn
!!!REG: Oklahoma and Montana
!!!LANG: Tone
!!!LING_GROUP: Algonquin
**kern	**kern
*staff2	*staff1
=1-	=1-
*clefF4	*clefF4
*k[b-e-a-d-]	*k[b-e-a-d-]
*M2/4	*M2/4
2r	16B-\LL
.	16A-\J
.	8A-\J
.	8A-\
.	(32A-\LLL
.	32F\JJJ)
.	16r
=2	=2
*M3/4	*M3/4
2.r	16B-\LL
.	16A-\J
.	8A-\J
.	8A-\
.	32A-\LLK
.	16.F\JJ
.	8F\L
.	8F\J
=3	=3
*M5/8	*M5/8
3...r	4.F\
.	8r
.	8F\
=4!|:	=4!|:
*M2/4	*M2/4
8r	8c\L
8GG/	8c\J
8r	16A-\
.	16r
8GG/	8c\
=5	=5
*M3/8	*M3/8
8r	8B-\L
8GG/	16c\Jk
.	16r
8r	8A-\
=6	=6
8GG/	8F\L
8r	8F\
8GG/	16C\Jk
.	16r
=7	=7
*M5/8	*M5/8
8GG/	8F\L
8r	16F\Jk
.	16r
8GG/	8F\L
8r	8G\
8GG/	8F\J
=8	=8
*M7/8	*M7/8
8r	8F\L
8GG/	8F\J
8r	4F\
8GG/	.
8r	8r
8GG/	8r
8r	8C/
=9	=9
*M5/8	*M5/8
8r	8G\L
8GG/	16G\Jk
.	16r
8r	8G\L
8GG/	8G\
8r	8F\J
=10	=10
*M6/8	*M6/8
8GG/	8Dn\L
8r	8D\
8GG/	16C\Jk
.	16r
8r	8D/L
8GG/	8C/
8r	8C/J
=11	=11
*M3/4	*M3/4
8GG/	2C/
8r	.
8GG/	.
8r	.
8GG/	4r
8r	.
=12||	=12||
*k[b-]	*k[b-]
*M2/4	*M2/4
8GG/	8A\L
8r	8G\J
8GG/	16G\LL
.	16G\J
8r	8F\J
=13	=13
*M5/8	*M5/8
8GG/	8A\L
8r	8G\
8GG/	16G\L
.	16G\J
8r	8F\
8GG/	8C\J
=14	=14
8r	8F\L
8GG/	16F\Jk
.	16r
8r	8F\L
8GG/	8G\
8r	8F\J
=15	=15
*M7/8	*M7/8
8GG/	2F\
8r	.
8GG/	.
8r	.
8GG/	8r
8r	8r
8GG/	8F\
=16:|!	=16:|!
*M5/8	*M5/8
8GG/	2F\
8r	.
8GG/	.
8r	.
8GG/	16F\
.	16r
==	==
*-	*-
